X: 266
T: Dowd's No. 9
R: reel
M: 4/4
L: 1/8
K:Dmaj
"D"DFAF "G"GFEF|"D"D2 FA dABA|F2 AF "G"GFGB|"D"AGFD "Em"EB,CD|
"D"DFAF "G"GFEF|"D"D2 FA dABA|F2 AF "G"GFGB|"D"AGFD ED D2 :|
"D"fd ~d2 "G"g2 ag|"D"f2 df edBA|fefa "G"gfec|"D"dcde fddA|
"D"dfaf "G"gfeg|"D"fedf "A"ecAF|"G"GABG "D"FAdB|AGFD ED D2 :|


